images/footer-page/telegram.svg

<svg width="24" height="24" viewBox="0 0 24 24" fill="none" xmlns="http://www.w3.org/2000/svg">
<g clip-path="url(#clip0_131_1713)">
<path d="M9.41693 15.181L9.01993 20.765C9.58793 20.765 9.83393 20.521 10.1289 20.228L12.7919 17.683L18.3099 21.724C19.3219 22.288 20.0349 21.991 20.3079 20.793L23.9299 3.82104L23.9309 3.82004C24.2519 2.32404 23.3899 1.73904 22.4039 2.10604L1.11393 10.257C-0.339066 10.821 -0.317066 11.631 0.866934 11.998L6.30993 13.691L18.9529 5.78004C19.5479 5.38604 20.0889 5.60404 19.6439 5.99804L9.41693 15.181Z" fill="white"/>
</g>
<defs>
<clipPath id="clip0_131_1713">
<rect width="24" height="24" fill="white"/>
</clipPath>
</defs>
</svg>

<svg xmlns="http://www.w3.org/2000/svg" width="24" height="24" fill="none"><g clip-path="url(#a)"><path fill="#fff" d="m9.417 15.181-.397 5.584c.568 0 .814-.244 1.109-.537l2.663-2.545 5.518 4.041c1.012.564 1.725.267 1.998-.931L23.93 3.821V3.82c.322-1.496-.54-2.081-1.526-1.714l-21.29 8.151c-1.453.564-1.431 1.374-.247 1.741l5.443 1.693L18.953 5.78c.595-.394 1.136-.176.69.218L9.418 15.181Z"/></g><defs><clipPath id="a"><path fill="#fff" d="M0 0h24v24H0z"/></clipPath></defs></svg>
